src/pos-icons/folder-table.svg

<svg height="24" viewBox="0 0 24 24" width="24" xmlns="http://www.w3.org/2000/svg"><path d="m4 4c-1.11 0-2 .89-2 2v12a2 2 0 0 0 2 2h16a2 2 0 0 0 2-2v-10c0-1.11-.9-2-2-2h-8l-2-2zm8 5h3v2h-3zm4 0h3v2h-3zm-4 3h3v2h-3zm4 0h3v2h-3zm-4 3h3v2h-3zm4 0h3v2h-3z"/></svg>

<?xml version="1.0" encoding="UTF-8"?><!DOCTYPE svg PUBLIC "-//W3C//DTD SVG 1.1//EN" "http://www.w3.org/Graphics/SVG/1.1/DTD/svg11.dtd"><svg xmlns="http://www.w3.org/2000/svg" xmlns:xlink="http://www.w3.org/1999/xlink" version="1.1" id="mdi-folder-table" width="24" height="24" viewBox="0 0 24 24"><path d="M4 4C2.89 4 2 4.89 2 6V18A2 2 0 0 0 4 20H20A2 2 0 0 0 22 18V8C22 6.89 21.1 6 20 6H12L10 4H4M12 9H15V11H12V9M16 9H19V11H16V9M12 12H15V14H12V12M16 12H19V14H16V12M12 15H15V17H12V15M16 15H19V17H16V15Z" /></svg>
